X:66
T:Lighterman’s Delight,The JJo.066
S:J.Jones MS,1801,N.Shrops.
A:N Shropshire
Z:Neil Brookes 2006
M:6/8
L:1/8
Q:3/8=120
K:C
G|gag fed|cdeG2g|c2c dcd|efed2G|!
gag fed|cdeG2g|c2c dcd|[c4C4]:|!
|:G|d2d efe|d2d efe|gag fgf|efe d2G|!
d2d efe|d2d efe|g2f edc|G2B[c2C2]:|

